static/img/kroki/a3fbf38e7c5e916f332c6c83acec9547.svg

<?xml version="1.0" encoding="us-ascii" standalone="no"?><svg xmlns="http://www.w3.org/2000/svg" xmlns:xlink="http://www.w3.org/1999/xlink" contentStyleType="text/css" height="252px" preserveAspectRatio="none" style="width:1783px;height:252px;" version="1.1" viewBox="0 0 1783 252" width="1783px" zoomAndPan="magnify"><defs/><g><!--class gcp_forwarding_rule--><g id="elem_gcp_forwarding_rule"><rect codeLine="22" fill="#3D176E" height="39.7891" id="gcp_forwarding_rule" rx="2.5" ry="2.5" style="stroke:#000D19;stroke-width:0.5;" width="212" x="906" y="106.79"/><ellipse cx="921" cy="126.6845" fill="#ADD1B2" rx="11" ry="11" style="stroke:#181818;stroke-width:1.0;"/><path d="M923.9688,132.3252 Q923.3906,132.622 922.75,132.7627 Q922.1094,132.9189 921.4063,132.9189 Q918.9063,132.9189 917.5781,131.2783 Q916.2656,129.622 916.2656,126.497 Q916.2656,123.372 917.5781,121.7158 Q918.9063,120.0595 921.4063,120.0595 Q922.1094,120.0595 922.75,120.2158 Q923.4063,120.372 923.9688,120.6689 L923.9688,123.3877 Q923.3438,122.8095 922.75,122.5439 Q922.1563,122.2627 921.5313,122.2627 Q920.1875,122.2627 919.5,123.3408 Q918.8125,124.4033 918.8125,126.497 Q918.8125,128.5908 919.5,129.6689 Q920.1875,130.7314 921.5313,130.7314 Q922.1563,130.7314 922.75,130.4658 Q923.3438,130.1845 923.9688,129.6064 L923.9688,132.3252 Z " fill="#000000"/><text fill="#D9B8FF" font-family="Helvetica" font-size="17" lengthAdjust="spacing" textLength="170" x="940" y="132.5698">gcp_forwarding_rule</text></g><!--class gcp_network--><g id="elem_gcp_network"><rect codeLine="24" fill="#3D176E" height="39.7891" id="gcp_network" rx="2.5" ry="2.5" style="stroke:#000D19;stroke-width:0.5;" width="149" x="1016.5" y="7"/><ellipse cx="1031.5" cy="26.8945" fill="#ADD1B2" rx="11" ry="11" style="stroke:#181818;stroke-width:1.0;"/><path d="M1034.4688,32.5352 Q1033.8906,32.832 1033.25,32.9727 Q1032.6094,33.1289 1031.9063,33.1289 Q1029.4063,33.1289 1028.0781,31.4883 Q1026.7656,29.832 1026.7656,26.707 Q1026.7656,23.582 1028.0781,21.9258 Q1029.4063,20.2695 1031.9063,20.2695 Q1032.6094,20.2695 1033.25,20.4258 Q1033.9063,20.582 1034.4688,20.8789 L1034.4688,23.5977 Q1033.8438,23.0195 1033.25,22.7539 Q1032.6563,22.4727 1032.0313,22.4727 Q1030.6875,22.4727 1030,23.5508 Q1029.3125,24.6133 1029.3125,26.707 Q1029.3125,28.8008 1030,29.8789 Q1030.6875,30.9414 1032.0313,30.9414 Q1032.6563,30.9414 1033.25,30.6758 Q1033.8438,30.3945 1034.4688,29.8164 L1034.4688,32.5352 Z " fill="#000000"/><text fill="#D9B8FF" font-family="Helvetica" font-size="17" lengthAdjust="spacing" textLength="107" x="1050.5" y="32.7798">gcp_network</text></g><!--class gcp_target_grpc_proxy--><g id="elem_gcp_target_grpc_proxy"><rect codeLine="26" fill="#3D176E" height="39.7891" id="gcp_target_grpc_proxy" rx="2.5" ry="2.5" style="stroke:#000D19;stroke-width:0.5;" width="230" x="7" y="206.58"/><ellipse cx="22" cy="226.4745" fill="#ADD1B2" rx="11" ry="11" style="stroke:#181818;stroke-width:1.0;"/><path d="M24.9688,232.1152 Q24.3906,232.412 23.75,232.5527 Q23.1094,232.7089 22.4063,232.7089 Q19.9063,232.7089 18.5781,231.0683 Q17.2656,229.412 17.2656,226.287 Q17.2656,223.162 18.5781,221.5058 Q19.9063,219.8495 22.4063,219.8495 Q23.1094,219.8495 23.75,220.0058 Q24.4063,220.162 24.9688,220.4589 L24.9688,223.1777 Q24.3438,222.5995 23.75,222.3339 Q23.1563,222.0527 22.5313,222.0527 Q21.1875,222.0527 20.5,223.1308 Q19.8125,224.1933 19.8125,226.287 Q19.8125,228.3808 20.5,229.4589 Q21.1875,230.5214 22.5313,230.5214 Q23.1563,230.5214 23.75,230.2558 Q24.3438,229.9745 24.9688,229.3964 L24.9688,232.1152 Z " fill="#000000"/><text fill="#D9B8FF" font-family="Helvetica" font-size="17" lengthAdjust="spacing" textLength="188" x="41" y="232.3598">gcp_target_grpc_proxy</text></g><!--class gcp_target_http_proxy--><g id="elem_gcp_target_http_proxy"><rect codeLine="28" fill="#3D176E" height="39.7891" id="gcp_target_http_proxy" rx="2.5" ry="2.5" style="stroke:#000D19;stroke-width:0.5;" width="230" x="272" y="206.58"/><ellipse cx="287" cy="226.4745" fill="#ADD1B2" rx="11" ry="11" style="stroke:#181818;stroke-width:1.0;"/><path d="M289.9688,232.1152 Q289.3906,232.412 288.75,232.5527 Q288.1094,232.7089 287.4063,232.7089 Q284.9063,232.7089 283.5781,231.0683 Q282.2656,229.412 282.2656,226.287 Q282.2656,223.162 283.5781,221.5058 Q284.9063,219.8495 287.4063,219.8495 Q288.1094,219.8495 288.75,220.0058 Q289.4063,220.162 289.9688,220.4589 L289.9688,223.1777 Q289.3438,222.5995 288.75,222.3339 Q288.1563,222.0527 287.5313,222.0527 Q286.1875,222.0527 285.5,223.1308 Q284.8125,224.1933 284.8125,226.287 Q284.8125,228.3808 285.5,229.4589 Q286.1875,230.5214 287.5313,230.5214 Q288.1563,230.5214 288.75,230.2558 Q289.3438,229.9745 289.9688,229.3964 L289.9688,232.1152 Z " fill="#000000"/><text fill="#D9B8FF" font-family="Helvetica" font-size="17" lengthAdjust="spacing" textLength="188" x="306" y="232.3598">gcp_target_http_proxy</text></g><!--class gcp_target_https_proxy--><g id="elem_gcp_target_https_proxy"><rect codeLine="30" fill="#3D176E" height="39.7891" id="gcp_target_https_proxy" rx="2.5" ry="2.5" style="stroke:#000D19;stroke-width:0.5;" width="238" x="537" y="206.58"/><ellipse cx="552" cy="226.4745" fill="#ADD1B2" rx="11" ry="11" style="stroke:#181818;stroke-width:1.0;"/><path d="M554.9688,232.1152 Q554.3906,232.412 553.75,232.5527 Q553.1094,232.7089 552.4063,232.7089 Q549.9063,232.7089 548.5781,231.0683 Q547.2656,229.412 547.2656,226.287 Q547.2656,223.162 548.5781,221.5058 Q549.9063,219.8495 552.4063,219.8495 Q553.1094,219.8495 553.75,220.0058 Q554.4063,220.162 554.9688,220.4589 L554.9688,223.1777 Q554.3438,222.5995 553.75,222.3339 Q553.1563,222.0527 552.5313,222.0527 Q551.1875,222.0527 550.5,223.1308 Q549.8125,224.1933 549.8125,226.287 Q549.8125,228.3808 550.5,229.4589 Q551.1875,230.5214 552.5313,230.5214 Q553.1563,230.5214 553.75,230.2558 Q554.3438,229.9745 554.9688,229.3964 L554.9688,232.1152 Z " fill="#000000"/><text fill="#D9B8FF" font-family="Helvetica" font-size="17" lengthAdjust="spacing" textLength="196" x="571" y="232.3598">gcp_target_https_proxy</text></g><!--class gcp_target_pool--><g id="elem_gcp_target_pool"><rect codeLine="32" fill="#3D176E" height="39.7891" id="gcp_target_pool" rx="2.5" ry="2.5" style="stroke:#000D19;stroke-width:0.5;" width="174" x="810" y="206.58"/><ellipse cx="825" cy="226.4745" fill="#ADD1B2" rx="11" ry="11" style="stroke:#181818;stroke-width:1.0;"/><path d="M827.9688,232.1152 Q827.3906,232.412 826.75,232.5527 Q826.1094,232.7089 825.4063,232.7089 Q822.9063,232.7089 821.5781,231.0683 Q820.2656,229.412 820.2656,226.287 Q820.2656,223.162 821.5781,221.5058 Q822.9063,219.8495 825.4063,219.8495 Q826.1094,219.8495 826.75,220.0058 Q827.4063,220.162 827.9688,220.4589 L827.9688,223.1777 Q827.3438,222.5995 826.75,222.3339 Q826.1563,222.0527 825.5313,222.0527 Q824.1875,222.0527 823.5,223.1308 Q822.8125,224.1933 822.8125,226.287 Q822.8125,228.3808 823.5,229.4589 Q824.1875,230.5214 825.5313,230.5214 Q826.1563,230.5214 826.75,230.2558 Q827.3438,229.9745 827.9688,229.3964 L827.9688,232.1152 Z " fill="#000000"/><text fill="#D9B8FF" font-family="Helvetica" font-size="17" lengthAdjust="spacing" textLength="132" x="844" y="232.3598">gcp_target_pool</text></g><!--class gcp_target_ssl_proxy--><g id="elem_gcp_target_ssl_proxy"><rect codeLine="34" fill="#3D176E" height="39.7891" id="gcp_target_ssl_proxy" rx="2.5" ry="2.5" style="stroke:#000D19;stroke-width:0.5;" width="216" x="1019" y="206.58"/><ellipse cx="1034" cy="226.4745" fill="#ADD1B2" rx="11" ry="11" style="stroke:#181818;stroke-width:1.0;"/><path d="M1036.9688,232.1152 Q1036.3906,232.412 1035.75,232.5527 Q1035.1094,232.7089 1034.4063,232.7089 Q1031.9063,232.7089 1030.5781,231.0683 Q1029.2656,229.412 1029.2656,226.287 Q1029.2656,223.162 1030.5781,221.5058 Q1031.9063,219.8495 1034.4063,219.8495 Q1035.1094,219.8495 1035.75,220.0058 Q1036.4063,220.162 1036.9688,220.4589 L1036.9688,223.1777 Q1036.3438,222.5995 1035.75,222.3339 Q1035.1563,222.0527 1034.5313,222.0527 Q1033.1875,222.0527 1032.5,223.1308 Q1031.8125,224.1933 1031.8125,226.287 Q1031.8125,228.3808 1032.5,229.4589 Q1033.1875,230.5214 1034.5313,230.5214 Q1035.1563,230.5214 1035.75,230.2558 Q1036.3438,229.9745 1036.9688,229.3964 L1036.9688,232.1152 Z " fill="#000000"/><text fill="#D9B8FF" font-family="Helvetica" font-size="17" lengthAdjust="spacing" textLength="174" x="1053" y="232.3598">gcp_target_ssl_proxy</text></g><!--class gcp_target_tcp_proxy--><g id="elem_gcp_target_tcp_proxy"><rect codeLine="36" fill="#3D176E" height="39.7891" id="gcp_target_tcp_proxy" rx="2.5" ry="2.5" style="stroke:#000D19;stroke-width:0.5;" width="220" x="1270" y="206.58"/><ellipse cx="1285" cy="226.4745" fill="#ADD1B2" rx="11" ry="11" style="stroke:#181818;stroke-width:1.0;"/><path d="M1287.9688,232.1152 Q1287.3906,232.412 1286.75,232.5527 Q1286.1094,232.7089 1285.4063,232.7089 Q1282.9063,232.7089 1281.5781,231.0683 Q1280.2656,229.412 1280.2656,226.287 Q1280.2656,223.162 1281.5781,221.5058 Q1282.9063,219.8495 1285.4063,219.8495 Q1286.1094,219.8495 1286.75,220.0058 Q1287.4063,220.162 1287.9688,220.4589 L1287.9688,223.1777 Q1287.3438,222.5995 1286.75,222.3339 Q1286.1563,222.0527 1285.5313,222.0527 Q1284.1875,222.0527 1283.5,223.1308 Q1282.8125,224.1933 1282.8125,226.287 Q1282.8125,228.3808 1283.5,229.4589 Q1284.1875,230.5214 1285.5313,230.5214 Q1286.1563,230.5214 1286.75,230.2558 Q1287.3438,229.9745 1287.9688,229.3964 L1287.9688,232.1152 Z " fill="#000000"/><text fill="#D9B8FF" font-family="Helvetica" font-size="17" lengthAdjust="spacing" textLength="178" x="1304" y="232.3598">gcp_target_tcp_proxy</text></g><!--class gcp_target_vpn_gateway--><g id="elem_gcp_target_vpn_gateway"><rect codeLine="38" fill="#3D176E" height="39.7891" id="gcp_target_vpn_gateway" rx="2.5" ry="2.5" style="stroke:#000D19;stroke-width:0.5;" width="251" x="1525.5" y="206.58"/><ellipse cx="1540.5" cy="226.4745" fill="#ADD1B2" rx="11" ry="11" style="stroke:#181818;stroke-width:1.0;"/><path d="M1543.4688,232.1152 Q1542.8906,232.412 1542.25,232.5527 Q1541.6094,232.7089 1540.9063,232.7089 Q1538.4063,232.7089 1537.0781,231.0683 Q1535.7656,229.412 1535.7656,226.287 Q1535.7656,223.162 1537.0781,221.5058 Q1538.4063,219.8495 1540.9063,219.8495 Q1541.6094,219.8495 1542.25,220.0058 Q1542.9063,220.162 1543.4688,220.4589 L1543.4688,223.1777 Q1542.8438,222.5995 1542.25,222.3339 Q1541.6563,222.0527 1541.0313,222.0527 Q1539.6875,222.0527 1539,223.1308 Q1538.3125,224.1933 1538.3125,226.287 Q1538.3125,228.3808 1539,229.4589 Q1539.6875,230.5214 1541.0313,230.5214 Q1541.6563,230.5214 1542.25,230.2558 Q1542.8438,229.9745 1543.4688,229.3964 L1543.4688,232.1152 Z " fill="#000000"/><text fill="#D9B8FF" font-family="Helvetica" font-size="17" lengthAdjust="spacing" textLength="209" x="1559.5" y="232.3598">gcp_target_vpn_gateway</text></g><!--link gcp_forwarding_rule to gcp_target_grpc_proxy--><g id="link_gcp_forwarding_rule_gcp_target_grpc_proxy"><path codeLine="40" d="M905.61,137.51 C758.99,151.34 486.64,178.07 255,206.58 C251.11,207.06 247.16,207.56 243.17,208.07 " fill="none" id="gcp_forwarding_rule-to-gcp_target_grpc_proxy" style="stroke:#1A83AF;stroke-width:2.0;"/><polygon fill="#1A83AF" points="238.31,208.83,247.7497,211.6393,243.2685,208.187,246.7208,203.7058,238.31,208.83" style="stroke:#1A83AF;stroke-width:2.0;"/></g><!--link gcp_forwarding_rule to gcp_target_http_proxy--><g id="link_gcp_forwarding_rule_gcp_target_http_proxy"><path codeLine="41" d="M905.62,144.33 C795.45,161.57 623.59,188.46 508.23,206.51 " fill="none" id="gcp_forwarding_rule-to-gcp_target_http_proxy" style="stroke:#1A83AF;stroke-width:2.0;"/><polygon fill="#1A83AF" points="503.44,207.41,512.9564,209.9475,508.378,206.6251,511.7004,202.0467,503.44,207.41" style="stroke:#1A83AF;stroke-width:2.0;"/></g><!--link gcp_forwarding_rule to gcp_target_https_proxy--><g id="link_gcp_forwarding_rule_gcp_target_https_proxy"><path codeLine="42" d="M941.67,147.01 C881.18,163.62 794.13,187.53 732.04,204.59 " fill="none" id="gcp_forwarding_rule-to-gcp_target_https_proxy" style="stroke:#1A83AF;stroke-width:2.0;"/><polygon fill="#1A83AF" points="727.49,206.11,737.2287,207.5791,732.3108,204.7836,735.1064,199.8657,727.49,206.11" style="stroke:#1A83AF;stroke-width:2.0;"/></g><!--link gcp_forwarding_rule to gcp_target_pool--><g id="link_gcp_forwarding_rule_gcp_target_pool"><path codeLine="43" d="M989.28,147.01 C970.54,162.94 943.89,185.6 924.05,202.47 " fill="none" id="gcp_forwarding_rule-to-gcp_target_pool" style="stroke:#1A83AF;stroke-width:2.0;"/><polygon fill="#1A83AF" points="920.67,206.2,930.1177,203.4179,924.4793,202.9613,924.9359,197.3229,920.67,206.2" style="stroke:#1A83AF;stroke-width:2.0;"/></g><!--link gcp_forwarding_rule to gcp_target_ssl_proxy--><g id="link_gcp_forwarding_rule_gcp_target_ssl_proxy"><path codeLine="44" d="M1034.72,147.01 C1053.46,162.94 1080.11,185.6 1099.95,202.47 " fill="none" id="gcp_forwarding_rule-to-gcp_target_ssl_proxy" style="stroke:#1A83AF;stroke-width:2.0;"/><polygon fill="#1A83AF" points="1103.33,206.2,1099.0641,197.3229,1099.5207,202.9613,1093.8823,203.4179,1103.33,206.2" style="stroke:#1A83AF;stroke-width:2.0;"/></g><!--link gcp_forwarding_rule to gcp_target_tcp_proxy--><g id="link_gcp_forwarding_rule_gcp_target_tcp_proxy"><path codeLine="45" d="M1084.7,147.01 C1147.23,163.62 1237.22,187.53 1301.39,204.59 " fill="none" id="gcp_forwarding_rule-to-gcp_target_tcp_proxy" style="stroke:#1A83AF;stroke-width:2.0;"/><polygon fill="#1A83AF" points="1306.13,206.11,1298.4623,199.9289,1301.2984,204.8235,1296.4038,207.6596,1306.13,206.11" style="stroke:#1A83AF;stroke-width:2.0;"/></g><!--link gcp_forwarding_rule to gcp_target_vpn_gateway--><g id="link_gcp_forwarding_rule_gcp_target_vpn_gateway"><path codeLine="46" d="M1118.24,143.94 C1228.37,160.8 1400.71,187.17 1519.4,205.34 " fill="none" id="gcp_forwarding_rule-to-gcp_target_vpn_gateway" style="stroke:#1A83AF;stroke-width:2.0;"/><polygon fill="#1A83AF" points="1524.01,206.19,1515.7194,200.8734,1519.0676,205.4329,1514.5081,208.7812,1524.01,206.19" style="stroke:#1A83AF;stroke-width:2.0;"/></g><!--link gcp_network to gcp_forwarding_rule--><g id="link_gcp_network_gcp_forwarding_rule"><path codeLine="47" d="M1075.39,47.22 C1062.73,62.89 1044.83,85.05 1031.27,101.83 " fill="none" id="gcp_network-to-gcp_forwarding_rule" style="stroke:#1A83AF;stroke-width:2.0;"/><polygon fill="#1A83AF" points="1027.58,105.41,1036.3499,100.9279,1030.7243,101.5224,1030.1298,95.8969,1027.58,105.41" style="stroke:#1A83AF;stroke-width:2.0;"/></g><!--link gcp_network to gcp_target_vpn_gateway--><g id="link_gcp_network_gcp_target_vpn_gateway"><path codeLine="48" d="M1145.71,47.2 C1251,84.35 1481.02,165.5 1590.62,204.17 " fill="none" id="gcp_network-to-gcp_target_vpn_gateway" style="stroke:#1A83AF;stroke-width:2.0;"/><polygon fill="#1A83AF" points="1595.06,206.09,1587.8958,199.3317,1590.3429,204.4319,1585.2428,206.879,1595.06,206.09" style="stroke:#1A83AF;stroke-width:2.0;"/></g><!--SRC=[dP91Jy9048Nl_8fDE9DGYG8Naqf2z4ACU3EcMRgpRTDsTpCxKD7utxMYk7PBIRtk-zxCcvTDCm4CIaDxLaAv0RG3csVASEGb2n5rjT25HZQKail9j2akjQApm8gNm6wXs05bCMyIZsaMvmgiPHUETCFZF46zLU8mdf0h-oc18eTQ5DpQa0YppPR02IFccvcKJR8vT3WHmVGAF4oZ0Fn6nkEn2EPDvEogphkFn3fx1HQufQqqWHVJM_55TQQi2IUaT-YFVZBZFHSYKmcxTDuU3fbG0VvvNwTSwAgc9I-ikyOI86ZQ6rXuLy5y9kIq5Rux1STrSoo9JIGrLXphY15k2s1lWtT7LK2LnhpnIXmJe2X14qS6zSk-NK-9p3dTTW56ww9TiRReCbBSkNXdL9HmWeeVWBOUHa_389nDmkNpwBhzw5wstovws-m_V7LplGp7GdkvZZttSZdr3znFvl6DWTsmF_m3]--></g></svg>

<svg xmlns="http://www.w3.org/2000/svg" width="1783" height="252" preserveAspectRatio="none" style="width:1783px;height:252px"><rect width="212" height="39.789" x="906" y="106.79" fill="#3D176E" rx="2.5" ry="2.5" style="stroke:#000d19;stroke-width:.5"/><circle cx="921" cy="126.684" r="11" fill="#ADD1B2" style="stroke:#181818;stroke-width:1"/><path d="M923.969 132.325q-.578.297-1.219.438-.64.156-1.344.156-2.5 0-3.828-1.64-1.312-1.657-1.312-4.782t1.312-4.781q1.328-1.656 3.828-1.656.703 0 1.344.156.656.156 1.219.453v2.719q-.625-.579-1.219-.844-.594-.281-1.219-.281-1.343 0-2.031 1.078-.688 1.062-.688 3.156 0 2.094.688 3.172.688 1.062 2.031 1.062.625 0 1.219-.265.594-.281 1.219-.86v2.72Z"/><text x="940" y="132.57" fill="#D9B8FF" font-family="Helvetica" font-size="17" textLength="170">gcp_forwarding_rule</text><rect width="149" height="39.789" x="1016.5" y="7" fill="#3D176E" rx="2.5" ry="2.5" style="stroke:#000d19;stroke-width:.5"/><circle cx="1031.5" cy="26.895" r="11" fill="#ADD1B2" style="stroke:#181818;stroke-width:1"/><path d="M1034.469 32.535q-.578.297-1.219.438-.64.156-1.344.156-2.5 0-3.828-1.64-1.312-1.657-1.312-4.782t1.312-4.781q1.328-1.656 3.828-1.656.703 0 1.344.156.656.156 1.219.453v2.719q-.625-.578-1.219-.844-.594-.281-1.219-.281-1.343 0-2.031 1.078-.688 1.062-.688 3.156 0 2.094.688 3.172.688 1.062 2.031 1.062.625 0 1.219-.265.594-.281 1.219-.86v2.72Z"/><text x="1050.5" y="32.78" fill="#D9B8FF" font-family="Helvetica" font-size="17" textLength="107">gcp_network</text><rect width="230" height="39.789" x="7" y="206.58" fill="#3D176E" rx="2.5" ry="2.5" style="stroke:#000d19;stroke-width:.5"/><circle cx="22" cy="226.475" r="11" fill="#ADD1B2" style="stroke:#181818;stroke-width:1"/><path d="M24.969 232.115q-.578.297-1.219.438-.64.156-1.344.156-2.5 0-3.828-1.64-1.312-1.657-1.312-4.782t1.312-4.781q1.328-1.656 3.828-1.656.703 0 1.344.156.656.156 1.219.453v2.719q-.625-.578-1.219-.844-.594-.281-1.219-.281-1.343 0-2.031 1.078-.688 1.062-.688 3.156 0 2.094.688 3.172.688 1.062 2.031 1.062.625 0 1.219-.265.594-.281 1.219-.86v2.72Z"/><text x="41" y="232.36" fill="#D9B8FF" font-family="Helvetica" font-size="17" textLength="188">gcp_target_grpc_proxy</text><rect width="230" height="39.789" x="272" y="206.58" fill="#3D176E" rx="2.5" ry="2.5" style="stroke:#000d19;stroke-width:.5"/><circle cx="287" cy="226.475" r="11" fill="#ADD1B2" style="stroke:#181818;stroke-width:1"/><path d="M289.969 232.115q-.578.297-1.219.438-.64.156-1.344.156-2.5 0-3.828-1.64-1.312-1.657-1.312-4.782t1.312-4.781q1.328-1.656 3.828-1.656.703 0 1.344.156.656.156 1.219.453v2.719q-.625-.578-1.219-.844-.594-.281-1.219-.281-1.344 0-2.031 1.078-.688 1.062-.688 3.156 0 2.094.688 3.172.688 1.062 2.031 1.062.625 0 1.219-.265.594-.281 1.219-.86v2.72Z"/><text x="306" y="232.36" fill="#D9B8FF" font-family="Helvetica" font-size="17" textLength="188">gcp_target_http_proxy</text><rect width="238" height="39.789" x="537" y="206.58" fill="#3D176E" rx="2.5" ry="2.5" style="stroke:#000d19;stroke-width:.5"/><circle cx="552" cy="226.475" r="11" fill="#ADD1B2" style="stroke:#181818;stroke-width:1"/><path d="M554.969 232.115q-.578.297-1.219.438-.64.156-1.344.156-2.5 0-3.828-1.64-1.312-1.657-1.312-4.782t1.312-4.781q1.328-1.656 3.828-1.656.703 0 1.344.156.656.156 1.219.453v2.719q-.625-.578-1.219-.844-.594-.281-1.219-.281-1.343 0-2.031 1.078-.688 1.062-.688 3.156 0 2.094.688 3.172.688 1.062 2.031 1.062.625 0 1.219-.265.594-.281 1.219-.86v2.72Z"/><text x="571" y="232.36" fill="#D9B8FF" font-family="Helvetica" font-size="17" textLength="196">gcp_target_https_proxy</text><rect width="174" height="39.789" x="810" y="206.58" fill="#3D176E" rx="2.5" ry="2.5" style="stroke:#000d19;stroke-width:.5"/><circle cx="825" cy="226.475" r="11" fill="#ADD1B2" style="stroke:#181818;stroke-width:1"/><path d="M827.969 232.115q-.578.297-1.219.438-.64.156-1.344.156-2.5 0-3.828-1.64-1.312-1.657-1.312-4.782t1.312-4.781q1.328-1.656 3.828-1.656.703 0 1.344.156.656.156 1.219.453v2.719q-.625-.578-1.219-.844-.594-.281-1.219-.281-1.343 0-2.031 1.078-.688 1.062-.688 3.156 0 2.094.688 3.172.688 1.062 2.031 1.062.625 0 1.219-.265.594-.281 1.219-.86v2.72Z"/><text x="844" y="232.36" fill="#D9B8FF" font-family="Helvetica" font-size="17" textLength="132">gcp_target_pool</text><rect width="216" height="39.789" x="1019" y="206.58" fill="#3D176E" rx="2.5" ry="2.5" style="stroke:#000d19;stroke-width:.5"/><circle cx="1034" cy="226.475" r="11" fill="#ADD1B2" style="stroke:#181818;stroke-width:1"/><path d="M1036.969 232.115q-.578.297-1.219.438-.64.156-1.344.156-2.5 0-3.828-1.64-1.312-1.657-1.312-4.782t1.312-4.781q1.328-1.656 3.828-1.656.703 0 1.344.156.656.156 1.219.453v2.719q-.625-.578-1.219-.844-.594-.281-1.219-.281-1.343 0-2.031 1.078-.688 1.062-.688 3.156 0 2.094.688 3.172.688 1.062 2.031 1.062.625 0 1.219-.265.594-.281 1.219-.86v2.72Z"/><text x="1053" y="232.36" fill="#D9B8FF" font-family="Helvetica" font-size="17" textLength="174">gcp_target_ssl_proxy</text><rect width="220" height="39.789" x="1270" y="206.58" fill="#3D176E" rx="2.5" ry="2.5" style="stroke:#000d19;stroke-width:.5"/><circle cx="1285" cy="226.475" r="11" fill="#ADD1B2" style="stroke:#181818;stroke-width:1"/><path d="M1287.969 232.115q-.578.297-1.219.438-.64.156-1.344.156-2.5 0-3.828-1.64-1.312-1.657-1.312-4.782t1.312-4.781q1.328-1.656 3.828-1.656.703 0 1.344.156.656.156 1.219.453v2.719q-.625-.578-1.219-.844-.594-.281-1.219-.281-1.343 0-2.031 1.078-.688 1.062-.688 3.156 0 2.094.688 3.172.688 1.062 2.031 1.062.625 0 1.219-.265.594-.281 1.219-.86v2.72Z"/><text x="1304" y="232.36" fill="#D9B8FF" font-family="Helvetica" font-size="17" textLength="178">gcp_target_tcp_proxy</text><rect width="251" height="39.789" x="1525.5" y="206.58" fill="#3D176E" rx="2.5" ry="2.5" style="stroke:#000d19;stroke-width:.5"/><circle cx="1540.5" cy="226.475" r="11" fill="#ADD1B2" style="stroke:#181818;stroke-width:1"/><path d="M1543.469 232.115q-.578.297-1.219.438-.64.156-1.344.156-2.5 0-3.828-1.64-1.312-1.657-1.312-4.782t1.312-4.781q1.328-1.656 3.828-1.656.703 0 1.344.156.656.156 1.219.453v2.719q-.625-.578-1.219-.844-.594-.281-1.219-.281-1.343 0-2.031 1.078-.688 1.062-.688 3.156 0 2.094.688 3.172.688 1.062 2.031 1.062.625 0 1.219-.265.594-.281 1.219-.86v2.72Z"/><text x="1559.5" y="232.36" fill="#D9B8FF" font-family="Helvetica" font-size="17" textLength="209">gcp_target_vpn_gateway</text><path fill="none" d="M905.61 137.51C758.99 151.34 486.64 178.07 255 206.58c-3.89.48-7.84.98-11.83 1.49" style="stroke:#1a83af;stroke-width:2"/><path fill="#1A83AF" d="m238.31 208.83 9.44 2.81-4.482-3.453 3.453-4.481-8.411 5.124z" style="stroke:#1a83af;stroke-width:2"/><path fill="none" d="M905.62 144.33c-110.17 17.24-282.03 44.13-397.39 62.18" style="stroke:#1a83af;stroke-width:2"/><path fill="#1A83AF" d="m503.44 207.41 9.516 2.537-4.578-3.322 3.322-4.578-8.26 5.363z" style="stroke:#1a83af;stroke-width:2"/><path fill="none" d="M941.67 147.01c-60.49 16.61-147.54 40.52-209.63 57.58" style="stroke:#1a83af;stroke-width:2"/><path fill="#1A83AF" d="m727.49 206.11 9.739 1.47-4.918-2.796 2.795-4.918-7.616 6.244z" style="stroke:#1a83af;stroke-width:2"/><path fill="none" d="M989.28 147.01c-18.74 15.93-45.39 38.59-65.23 55.46" style="stroke:#1a83af;stroke-width:2"/><path fill="#1A83AF" d="m920.67 206.2 9.448-2.782-5.639-.457.457-5.638-4.266 8.877z" style="stroke:#1a83af;stroke-width:2"/><path fill="none" d="M1034.72 147.01c18.74 15.93 45.39 38.59 65.23 55.46" style="stroke:#1a83af;stroke-width:2"/><path fill="#1A83AF" d="m1103.33 206.2-4.266-8.877.457 5.638-5.639.457 9.448 2.782z" style="stroke:#1a83af;stroke-width:2"/><path fill="none" d="M1084.7 147.01c62.53 16.61 152.52 40.52 216.69 57.58" style="stroke:#1a83af;stroke-width:2"/><path fill="#1A83AF" d="m1306.13 206.11-7.668-6.181 2.836 4.894-4.894 2.837 9.726-1.55z" style="stroke:#1a83af;stroke-width:2"/><path fill="none" d="M1118.24 143.94c110.13 16.86 282.47 43.23 401.16 61.4" style="stroke:#1a83af;stroke-width:2"/><path fill="#1A83AF" d="m1524.01 206.19-8.29-5.317 3.348 4.56-4.56 3.348 9.502-2.591z" style="stroke:#1a83af;stroke-width:2"/><path fill="none" d="M1075.39 47.22c-12.66 15.67-30.56 37.83-44.12 54.61" style="stroke:#1a83af;stroke-width:2"/><path fill="#1A83AF" d="m1027.58 105.41 8.77-4.482-5.626.594-.594-5.625-2.55 9.513z" style="stroke:#1a83af;stroke-width:2"/><path fill="none" d="M1145.71 47.2c105.29 37.15 335.31 118.3 444.91 156.97" style="stroke:#1a83af;stroke-width:2"/><path fill="#1A83AF" d="m1595.06 206.09-7.164-6.758 2.447 5.1-5.1 2.447 9.817-.789z" style="stroke:#1a83af;stroke-width:2"/></svg>
